X: 1902
T: Arra Mountains, The
R: slip jig
M: 9/8
K: Adorian
|:EAA EAB cBc|EAA EAG GFG|EAA EAB c2 d|ege ege dBG:|
A2 a gef g3|e2 a ged Bcd|e2 a gef g2 e|dBd ege dBG|
A2 a gfe g3|e2 a ged Bcd|efg fga g2 e|dBd ege dBG||

